static/img/careers/linkedin.svg

<svg width="18" height="20" viewBox="0 0 18 20" fill="none" xmlns="http://www.w3.org/2000/svg">
<path d="M4.02911 17.501H0.297321V5.81736H4.02911V17.501ZM2.16121 4.22361C0.967902 4.22361 0 3.26267 0 2.10251C8.54116e-09 1.54525 0.227698 1.01081 0.633002 0.616762C1.03831 0.222716 1.58802 0.00134277 2.16121 0.00134277C2.73439 0.00134277 3.2841 0.222716 3.68941 0.616762C4.09471 1.01081 4.32241 1.54525 4.32241 2.10251C4.32241 3.26267 3.35411 4.22361 2.16121 4.22361ZM17.996 17.501H14.2722V11.8135C14.2722 10.458 14.2441 8.7197 12.332 8.7197C10.3918 8.7197 10.0945 10.1924 10.0945 11.7158V17.501H6.3667V5.81736H9.9458V7.41111H9.99804C10.4963 6.49314 11.7133 5.52439 13.5289 5.52439C17.3057 5.52439 18 7.94236 18 11.083V17.501H17.996Z" fill="#0055FF"/>
</svg>

<svg xmlns="http://www.w3.org/2000/svg" width="18" height="20" fill="none"  xmlns:v="https://vecta.io/nano"><path d="M4.029 17.501H.297V5.817h3.732v11.684zM2.161 4.224C.968 4.224 0 3.263 0 2.103A2.07 2.07 0 0 1 .633.617c.405-.394.955-.615 1.528-.615s1.123.221 1.528.615a2.07 2.07 0 0 1 .633 1.486c0 1.16-.968 2.121-2.161 2.121zm15.835 13.277h-3.724v-5.688c0-1.355-.028-3.094-1.94-3.094-1.94 0-2.238 1.473-2.238 2.996v5.785H6.367V5.817h3.579v1.594h.052c.498-.918 1.715-1.887 3.531-1.887 3.777 0 4.471 2.418 4.471 5.559l-.004 6.418z" fill="#05f"/></svg>
